X:1
T:Virgo rosa
T: (c.1400-1460)
T:Virgo rosa
T:©2005 Paul R Marchesano May be freely copied for nonprofit use
T:©2005 Paul R Marchesano May be freely copied for nonprofit use
C:Gilles Binchois
Z:©2005 Paul R Marchesano May be freely copied for nonprofit use
%%score [ 1 2 3 ]
L:1/8
Q:1/4=92
M:3/4
K:C
V:1 treble nm="Soprano" snm="S"
V:2 treble nm="Alto" snm="A"
V:3 treble-8 nm="Tenor" snm="T"
V:1
 G2 A2 c2 | B d2 c2 B | c2 z2 B2 | c2 d2 dc | A G2 E FG | AB G G2 ^F | G2 z2 G2 | A2 B2 BA | %8
w: Vir- go ro-|sa ve- nu- sta-|tis, quae|pro- du- cta _|fi- o- rem te- ne|de- cus ca- sti- ta-|tis et|in par- tu _|
 cd e2 ec | dc/d/ ec cB | c2 z2 dc | B2 A2 AG | B2 z2 B2 | A2 z G c2 | B2 A G2 F | AB GG cc | %16
w: san- * cti- o- re|ex- ul- ta pre- vi- le gi-|is. Sal- ve|vir- go vir- gi-|nem, sal-|ve ve- na|ve- re, O pu-|ri- ta- tis ter- mi- num,|
 AB c_B AG | A2 z2 z2 | G2 GG A2 | AB c2 d2 | B2 c d2 c | AG/A/ BG- G/^F/F/E/ | !fermata!G6 |] %23
w: vir- go ple- na gra- ti-|a|pe- pe- ri- sti|Do- mi- num ce-|le- * stem. A-||men.|
V:2
 C2 E2 F2 | G2 EC G,2 | z2 G4 | EF G4 | E2 D C2 B, | A,G, D D2 ^C | D4 C2 | A,2 G,2 z2 | C2 G4 | %9
w: Vir- go ro-|sa _ _ _|quae|pro- du- cta|fi- o- rem _|de- cus ca- sti- ta-|tis et|par- tu|san- cti-|
 G,2 G G2 ^F | G2 E2 D2 | z G F F2 E | G4 z2 | E4 CA, | G,2 DG, D2- | DG, C2 E2 | FE F E2 D | %17
w: o- re pre- vi-|le gi- is.|vir- go vir- gi-|nem,|sal- ve ve-|na ve- re, pu-|* ri- ta- tis|vir- go _ gra- ti-|
 E2 F3 E | E2 E2 z E | E4 D2 | G2 F G2 E | E2 E D2 ^C | D6 |] %23
w: a pe- pe-|ri- sti Do-|mi- num|ce- * le- stem.|A- * * *|men.|
V:3
 c4 A2 | G2 c2 d2 | c4 G2 | A2 G4 | c2 Bc d2 | cB G2 A2 | G2 G2 de | f2 g4 | e2 c4 | B2 c2 d2 | %10
w: Vir- *|go ro- *|sa quae|pro- du-|cta fi- o- rem|de- cus ca- sti-|ta- tis et _|in par-|tu _|san- * cti-|
 c4 B2 | G2 d4 | G6 | c4 ef | g2 fg a2 | fg e2 c2 | dc A2 _B2 | A4 z2 | c6- | c4 B2 | G2 AG BA | %21
w: o- re|_ Sal-|ve|sal- ve _|ve- na ve- re,|pu- ri- ta- tis|vir- go gra- ti-|a|Do-|* mi-|num ce- le- stem. _|
 c2 GB A2 | G6 |] %23
w: A- * * *|men.|

